svg/azure-key-vaults.svg

<?xml version="1.0" encoding="UTF-8"?>
<svg xmlns="http://www.w3.org/2000/svg" xmlns:xlink="http://www.w3.org/1999/xlink" width="32" height="32" viewBox="0 0 32 32">
<defs>
<filter id="filter-remove-color" x="0%" y="0%" width="100%" height="100%">
<feColorMatrix color-interpolation-filters="sRGB" values="0 0 0 0 1 0 0 0 0 1 0 0 0 0 1 0 0 0 1 0" />
</filter>
<radialGradient id="radial-pattern-0" gradientUnits="userSpaceOnUse" cx="9" cy="9" fx="9" fy="9" r="8.5" gradientTransform="matrix(1.777778, 0.00266842, -0.00266842, 1.777778, 0, 0)">
<stop offset="0.18" stop-color="rgb(36.862746%, 62.7451%, 93.725491%)" stop-opacity="1"/>
<stop offset="0.56" stop-color="rgb(36.078432%, 62.352943%, 93.333334%)" stop-opacity="1"/>
<stop offset="0.69" stop-color="rgb(33.333334%, 61.176473%, 92.941177%)" stop-opacity="1"/>
<stop offset="0.78" stop-color="rgb(29.019609%, 59.215689%, 91.37255%)" stop-opacity="1"/>
<stop offset="0.86" stop-color="rgb(22.352941%, 56.470591%, 89.411765%)" stop-opacity="1"/>
<stop offset="0.93" stop-color="rgb(13.725491%, 52.941179%, 87.058824%)" stop-opacity="1"/>
<stop offset="0.99" stop-color="rgb(3.137255%, 48.235294%, 83.92157%)" stop-opacity="1"/>
<stop offset="1" stop-color="rgb(0%, 47.058824%, 83.137256%)" stop-opacity="1"/>
</radialGradient>
<radialGradient id="radial-pattern-1" gradientUnits="userSpaceOnUse" cx="38.950001" cy="182.070007" fx="38.950001" fy="182.070007" r="9.88" gradientTransform="matrix(1.67111, 0, 0, 1.67111, -51.040001, -290.20401)">
<stop offset="0.27" stop-color="rgb(100%, 84.313726%, 5.882353%)" stop-opacity="1"/>
<stop offset="0.49" stop-color="rgb(100%, 79.607844%, 7.058824%)" stop-opacity="1"/>
<stop offset="0.88" stop-color="rgb(99.607843%, 67.450982%, 9.803922%)" stop-opacity="1"/>
<stop offset="1" stop-color="rgb(99.607843%, 63.137257%, 10.588235%)" stop-opacity="1"/>
</radialGradient>
<image id="source-14" x="0" y="0" width="32" height="32" xlink:href="data:image/png;base64,iVBORw0KGgoAAAANSUhEUgAAACAAAAAgCAYAAABzenr0AAAABmJLR0QA/wD/AP+gvaeTAAAAO0lEQVRYhe3OsQ0AIAwDwQTq7D8tIjtgSyn46219BAAAAN6l42QJ23JEKAF7OsCCAAKUgDsdcFwR+FsDJMgDIRyEj4wAAAAASUVORK5CYII="/>
<mask id="mask-0">
<g filter="url(#filter-remove-color)">
<use xlink:href="#source-14"/>
</g>
</mask>
<clipPath id="clip-0">
<rect x="0" y="0" width="32" height="32"/>
</clipPath>
<g id="source-13" clip-path="url(#clip-0)">
<path fill-rule="nonzero" fill="rgb(100%, 57.647061%, 0%)" fill-opacity="1" d="M 14.542969 27.199219 C 14.664062 27.304688 14.832031 27.328125 14.976562 27.261719 C 15.121094 27.199219 15.214844 27.054688 15.21875 26.898438 L 15.21875 19.785156 C 15.214844 19.640625 15.144531 19.507812 15.023438 19.429688 C 14.898438 19.347656 14.738281 19.34375 14.609375 19.421875 C 14.480469 19.496094 14.40625 19.636719 14.417969 19.785156 L 14.417969 26.898438 C 14.425781 27.007812 14.46875 27.117188 14.542969 27.199219 "/>
</g>
<clipPath id="clip-1">
<rect x="0" y="0" width="32" height="32"/>
</clipPath>
<g id="source-16" clip-path="url(#clip-1)">
<g mask="url(#mask-0)">
<use xlink:href="#source-13"/>
</g>
</g>
<image id="source-29" x="0" y="0" width="32" height="32" xlink:href="data:image/png;base64,iVBORw0KGgoAAAANSUhEUgAAACAAAAAgCAYAAABzenr0AAAABmJLR0QA/wD/AP+gvaeTAAAAQklEQVRYhe3OsQ2AIABE0YcWxj3cfyTmEAp1BEJix73653JERKyuTLQ7LpyDrqPi/vtAwYFt0L1oeCa2IyIiImJhHyN8BgOUllIMAAAAAElFTkSuQmCC"/>
<mask id="mask-1">
<g filter="url(#filter-remove-color)">
<use xlink:href="#source-29"/>
</g>
</mask>
<clipPath id="clip-2">
<rect x="0" y="0" width="32" height="32"/>
</clipPath>
<g id="source-28" clip-path="url(#clip-2)">
<path fill-rule="nonzero" fill="rgb(100%, 57.647061%, 0%)" fill-opacity="1" d="M 12.019531 10.292969 L 20.214844 10.292969 C 20.488281 10.292969 20.710938 10.515625 20.710938 10.792969 L 20.710938 10.878906 C 20.710938 11.15625 20.488281 11.378906 20.214844 11.378906 L 12.019531 11.378906 C 11.886719 11.378906 11.757812 11.328125 11.664062 11.234375 C 11.570312 11.140625 11.519531 11.011719 11.519531 10.878906 L 11.519531 10.792969 C 11.519531 10.515625 11.742188 10.292969 12.019531 10.292969 Z M 12.019531 10.292969 "/>
</g>
<clipPath id="clip-3">
<rect x="0" y="0" width="32" height="32"/>
</clipPath>
<g id="source-31" clip-path="url(#clip-3)">
<g mask="url(#mask-1)">
<use xlink:href="#source-28"/>
</g>
</g>
<image id="source-44" x="0" y="0" width="32" height="32" xlink:href="data:image/png;base64,iVBORw0KGgoAAAANSUhEUgAAACAAAAAgCAYAAABzenr0AAAABmJLR0QA/wD/AP+gvaeTAAAAQUlEQVRYhe3OsQmEAAAEwRHBBizONq3sgy9ATT7WF8zciffgSJK83XCjnbBgPtnt+GLF5+kDMP7Zbb8zSZIkuXQAow4GA/ZLSvcAAAAASUVORK5CYII="/>
<mask id="mask-2">
<g filter="url(#filter-remove-color)">
<use xlink:href="#source-44"/>
</g>
</mask>
<clipPath id="clip-4">
<rect x="0" y="0" width="32" height="32"/>
</clipPath>
<g id="source-43" clip-path="url(#clip-4)">
<path fill-rule="nonzero" fill="rgb(100%, 57.647061%, 0%)" fill-opacity="1" d="M 12.019531 12.054688 L 20.214844 12.054688 C 20.488281 12.054688 20.710938 12.277344 20.710938 12.550781 L 20.710938 12.640625 C 20.710938 12.914062 20.488281 13.136719 20.214844 13.136719 L 12.019531 13.136719 C 11.746094 13.136719 11.519531 12.917969 11.519531 12.640625 L 11.519531 12.550781 C 11.519531 12.277344 11.742188 12.054688 12.019531 12.054688 Z M 12.019531 12.054688 "/>
</g>
<clipPath id="clip-5">
<rect x="0" y="0" width="32" height="32"/>
</clipPath>
<g id="source-46" clip-path="url(#clip-5)">
<g mask="url(#mask-2)">
<use xlink:href="#source-43"/>
</g>
</g>
</defs>
<path fill-rule="nonzero" fill="url(#radial-pattern-0)" d="M 16 0.890625 C 7.65625 0.890625 0.890625 7.65625 0.890625 16 C 0.890625 24.34375 7.65625 31.109375 16 31.109375 C 24.34375 31.109375 31.109375 24.34375 31.109375 16 C 31.101562 7.660156 24.339844 0.898438 16 0.890625 M 16 29.050781 C 8.792969 29.050781 2.949219 23.207031 2.949219 16 C 2.949219 8.792969 8.792969 2.949219 16 2.949219 C 23.207031 2.949219 29.050781 8.792969 29.050781 16 C 29.050781 23.207031 23.207031 29.050781 16 29.050781 "/>
<path fill-rule="nonzero" fill="rgb(100%, 100%, 100%)" fill-opacity="1" d="M 16 2.949219 C 8.792969 2.949219 2.949219 8.792969 2.949219 16 C 2.949219 23.207031 8.792969 29.050781 16 29.050781 C 23.207031 29.050781 29.050781 23.207031 29.050781 16 C 29.050781 8.792969 23.207031 2.949219 16 2.949219 "/>
<path fill-rule="nonzero" fill="url(#radial-pattern-1)" d="M 23.894531 13.03125 C 25.15625 11.753906 25.15625 9.703125 23.894531 8.425781 L 18.292969 2.808594 C 17.023438 1.546875 14.976562 1.546875 13.707031 2.808594 L 8.105469 8.425781 C 6.84375 9.703125 6.84375 11.753906 8.105469 13.03125 L 12.765625 17.777344 C 12.933594 17.949219 13.03125 18.175781 13.03125 18.417969 L 13.03125 27.09375 C 13.03125 27.386719 13.144531 27.667969 13.351562 27.875 L 15.484375 30.007812 C 15.621094 30.144531 15.804688 30.222656 16 30.222656 C 16.195312 30.222656 16.378906 30.144531 16.515625 30.007812 L 19.785156 26.738281 C 19.945312 26.566406 19.945312 26.304688 19.785156 26.132812 L 18.914062 25.261719 C 18.742188 25.078125 18.742188 24.789062 18.914062 24.605469 L 19.785156 23.734375 C 19.945312 23.566406 19.945312 23.300781 19.785156 23.128906 L 18.914062 22.257812 C 18.742188 22.074219 18.742188 21.785156 18.914062 21.601562 L 19.785156 20.730469 C 19.945312 20.558594 19.945312 20.296875 19.785156 20.125 L 18.578125 18.898438 L 18.578125 18.453125 Z M 16 4.179688 C 16.671875 4.15625 17.300781 4.503906 17.644531 5.082031 C 17.984375 5.660156 17.984375 6.378906 17.644531 6.957031 C 17.300781 7.535156 16.671875 7.878906 16 7.859375 C 15.007812 7.824219 14.21875 7.011719 14.21875 6.019531 C 14.21875 5.027344 15.007812 4.210938 16 4.179688 "/>
<use xlink:href="#source-16"/>
<use xlink:href="#source-31"/>
<use xlink:href="#source-46"/>
</svg>

<svg role="img" viewBox="0 0 32 32" xmlns="http://www.w3.org/2000/svg"><defs><clipPath id="azure-key-vaults_svg__a"><path d="M0 0h32v32H0z"/></clipPath><clipPath id="azure-key-vaults_svg__b"><path d="M0 0h32v32H0z"/></clipPath><clipPath id="azure-key-vaults_svg__e"><path d="M0 0h32v32H0z"/></clipPath><clipPath id="azure-key-vaults_svg__f"><path d="M0 0h32v32H0z"/></clipPath><clipPath id="azure-key-vaults_svg__i"><path d="M0 0h32v32H0z"/></clipPath><clipPath id="azure-key-vaults_svg__j"><path d="M0 0h32v32H0z"/></clipPath><g clip-path="url(#azure-key-vaults_svg__a)" id="azure-key-vaults_svg__d"><path d="M14.543 27.2a.4.4 0 0 0 .434.062.41.41 0 0 0 .242-.364v-7.113a.43.43 0 0 0-.196-.355.39.39 0 0 0-.414-.008.38.38 0 0 0-.191.363v7.113c.008.11.05.22.125.301" fill="rgb(100%, 57.647061%, 0%)"/></g><g clip-path="url(#azure-key-vaults_svg__b)" id="azure-key-vaults_svg__s" mask="url(#azure-key-vaults_svg__c)"><use href="#azure-key-vaults_svg__d"/></g><g clip-path="url(#azure-key-vaults_svg__e)" id="azure-key-vaults_svg__h"><path d="M12.02 10.293h8.195c.273 0 .496.223.496.5v.086c0 .277-.223.5-.496.5H12.02a.5.5 0 0 1-.356-.145.5.5 0 0 1-.144-.355v-.086c0-.277.222-.5.5-.5m0 0" fill="rgb(100%, 57.647061%, 0%)"/></g><g clip-path="url(#azure-key-vaults_svg__f)" id="azure-key-vaults_svg__t" mask="url(#azure-key-vaults_svg__g)"><use href="#azure-key-vaults_svg__h"/></g><g clip-path="url(#azure-key-vaults_svg__i)" id="azure-key-vaults_svg__l"><path d="M12.02 12.055h8.195c.273 0 .496.222.496.496v.09a.497.497 0 0 1-.496.496H12.02a.5.5 0 0 1-.5-.496v-.09c0-.274.222-.496.5-.496m0 0" fill="rgb(100%, 57.647061%, 0%)"/></g><g clip-path="url(#azure-key-vaults_svg__j)" id="azure-key-vaults_svg__u" mask="url(#azure-key-vaults_svg__k)"><use href="#azure-key-vaults_svg__l"/></g><image height="32" href="data:image/png;base64,iVBORw0KGgoAAAANSUhEUgAAACAAAAAgCAYAAABzenr0AAAABmJLR0QA/wD/AP+gvaeTAAAAO0lEQVRYhe3OsQ0AIAwDwQTq7D8tIjtgSyn46219BAAAAN6l42QJ23JEKAF7OsCCAAKUgDsdcFwR+FsDJMgDIRyEj4wAAAAASUVORK5CYII=" id="azure-key-vaults_svg__n" width="32" x="0" y="0"/><image height="32" href="data:image/png;base64,iVBORw0KGgoAAAANSUhEUgAAACAAAAAgCAYAAABzenr0AAAABmJLR0QA/wD/AP+gvaeTAAAAQklEQVRYhe3OsQ2AIABE0YcWxj3cfyTmEAp1BEJix73653JERKyuTLQ7LpyDrqPi/vtAwYFt0L1oeCa2IyIiImJhHyN8BgOUllIMAAAAAElFTkSuQmCC" id="azure-key-vaults_svg__o" width="32" x="0" y="0"/><image height="32" href="data:image/png;base64,iVBORw0KGgoAAAANSUhEUgAAACAAAAAgCAYAAABzenr0AAAABmJLR0QA/wD/AP+gvaeTAAAAQUlEQVRYhe3OsQmEAAAEwRHBBizONq3sgy9ATT7WF8zciffgSJK83XCjnbBgPtnt+GLF5+kDMP7Zbb8zSZIkuXQAow4GA/ZLSvcAAAAASUVORK5CYII=" id="azure-key-vaults_svg__p" width="32" x="0" y="0"/><mask id="azure-key-vaults_svg__c"><g filter="url(#azure-key-vaults_svg__m)"><use href="#azure-key-vaults_svg__n"/></g></mask><mask id="azure-key-vaults_svg__g"><g filter="url(#azure-key-vaults_svg__m)"><use href="#azure-key-vaults_svg__o"/></g></mask><mask id="azure-key-vaults_svg__k"><g filter="url(#azure-key-vaults_svg__m)"><use href="#azure-key-vaults_svg__p"/></g></mask><radialGradient cx="9" cy="9" fx="9" fy="9" gradientTransform="rotate(.086)scale(1.77778)" gradientUnits="userSpaceOnUse" id="azure-key-vaults_svg__q" r="8.5"><stop offset=".18" stop-color="rgb(36.862746%, 62.7451%, 93.725491%)"/><stop offset=".56" stop-color="rgb(36.078432%, 62.352943%, 93.333334%)"/><stop offset=".69" stop-color="rgb(33.333334%, 61.176473%, 92.941177%)"/><stop offset=".78" stop-color="rgb(29.019609%, 59.215689%, 91.37255%)"/><stop offset=".86" stop-color="rgb(22.352941%, 56.470591%, 89.411765%)"/><stop offset=".93" stop-color="rgb(13.725491%, 52.941179%, 87.058824%)"/><stop offset=".99" stop-color="rgb(3.137255%, 48.235294%, 83.92157%)"/><stop offset="1" stop-color="rgb(0%, 47.058824%, 83.137256%)"/></radialGradient><radialGradient cx="38.95" cy="182.07" fx="38.95" fy="182.07" gradientTransform="translate(-51.04 -290.204)scale(1.67111)" gradientUnits="userSpaceOnUse" id="azure-key-vaults_svg__r" r="9.88"><stop offset=".27" stop-color="rgb(100%, 84.313726%, 5.882353%)"/><stop offset=".49" stop-color="rgb(100%, 79.607844%, 7.058824%)"/><stop offset=".88" stop-color="rgb(99.607843%, 67.450982%, 9.803922%)"/><stop offset="1" stop-color="rgb(99.607843%, 63.137257%, 10.588235%)"/></radialGradient><filter height="100%" id="azure-key-vaults_svg__m" width="100%" x="0%" y="0%"><feColorMatrix color-interpolation-filters="sRGB" values="0 0 0 0 1 0 0 0 0 1 0 0 0 0 1 0 0 0 1 0"/></filter></defs><path d="M16 .89C7.656.89.89 7.657.89 16S7.657 31.11 16 31.11 31.11 24.343 31.11 16C31.101 7.66 24.34.898 16 .89m0 28.16C8.793 29.05 2.95 23.208 2.95 16S8.792 2.95 16 2.95 29.05 8.792 29.05 16 23.208 29.05 16 29.05" fill="url(#azure-key-vaults_svg__q)"/><path d="M16 2.95C8.793 2.95 2.95 8.792 2.95 16S8.792 29.05 16 29.05 29.05 23.208 29.05 16 23.208 2.95 16 2.95" fill="rgb(100%, 100%, 100%)"/><path d="M23.895 13.031a3.275 3.275 0 0 0 0-4.605l-5.602-5.617a3.25 3.25 0 0 0-4.586 0L8.105 8.426a3.275 3.275 0 0 0 0 4.605l4.66 4.746a.92.92 0 0 1 .266.641v8.676c0 .293.114.574.32.781l2.133 2.133a.727.727 0 0 0 1.032 0l3.27-3.27a.44.44 0 0 0 0-.605l-.872-.871a.48.48 0 0 1 0-.657l.871-.87a.44.44 0 0 0 0-.606l-.87-.871a.48.48 0 0 1 0-.656l.87-.872a.44.44 0 0 0 0-.605l-1.207-1.227v-.445ZM16 4.18a1.84 1.84 0 1 1 .121 3.678A1.84 1.84 0 0 1 16 4.18" fill="url(#azure-key-vaults_svg__r)"/><use href="#azure-key-vaults_svg__s"/><use href="#azure-key-vaults_svg__t"/><use href="#azure-key-vaults_svg__u"/></svg>
